X: 103103
T: JOHN Mc ALPINE
Q:"Strathspey."
R: Strathspey.
%R:strathspey, shottish
Z: 2017 by John Chambers <jc:trillian.mit.edu>
B: Kerr's Merrie Melodies v.1 p.3 s.1 #3
M: C
L: 1/8
K: A
|:\
vc2(c>B) A<F F>uA | vE>vFuA>uB c<B B>uA |\
c2(c>B) A<F F>uA | E>Ae>c B2A2 ::\
vc<e e>uf ve>vfua>uf | e<c c>a (e<c)B2 |\
c<e e>f e>fa>f | e<c c>A B2A2 :|

%%sep 1 1 500
%%sep 1 1 500

